teeny/solid/c-sharp.svg

<svg width="15" height="15" viewBox="0 0 15 15" fill="none" xmlns="http://www.w3.org/2000/svg">
<path d="M10 8V7H11V8H10Z" fill="black"/>
<path fill-rule="evenodd" clip-rule="evenodd" d="M7.5 0.421143L14 4.21281V10.7872L7.5 14.5788L1 10.7872V4.21281L7.5 0.421143ZM6.33156 4C4.49159 4 3 5.49159 3 7.33156V7.66844C3 9.50841 4.49159 11 6.33156 11C6.84877 11 7.35887 10.8796 7.82148 10.6483L8.22361 10.4472L7.77639 9.55279L7.37426 9.75385C7.05052 9.91573 6.69352 10 6.33156 10C5.04387 10 4 8.95613 4 7.66844V7.33156C4 6.04387 5.04387 5 6.33156 5C6.69352 5 7.05052 5.08427 7.37426 5.24615L7.77639 5.44721L8.22361 4.55279L7.82148 4.35172C7.35887 4.12042 6.84877 4 6.33156 4ZM9 5V6H8V7H9V8H8V9H9V10H10V9H11V10H12V9H13V8H12V7H13V6H12V5H11V6H10V5H9Z" fill="black"/>
</svg>

<svg viewBox="0 0 15 15" xmlns="http://www.w3.org/2000/svg"><g><path d="M10 8V7h1v1h-1Z"/><path fill-rule="evenodd" d="M7.5.42L14 4.21v6.57l-6.5 3.79 -6.5-3.8V4.19L7.5.39ZM6.33 3.99c-1.84 0-3.34 1.49-3.34 3.33v.33c0 1.83 1.49 3.33 3.33 3.33 .51 0 1.02-.13 1.48-.36l.4-.21 -.45-.9 -.41.2c-.33.16-.69.24-1.05.24C5 9.95 3.95 8.9 3.95 7.61v-.34c0-1.29 1.04-2.34 2.33-2.34 .36 0 .71.08 1.04.24l.4.2 .44-.9 -.41-.21c-.47-.24-.98-.36-1.49-.36Zm2.66 1v1h-1v1h1v1h-1v1h1v1h1v-1h1v1h1v-1h1v-1h-1v-1h1v-1h-1v-1h-1v1h-1v-1h-1Z"/></g></svg>
